X:20
T:Red Lion. ThoH.020
Q:1/2=90
M:3/2
L:1/8
B:Thompson's Compleat Collection of 120 Favourite Hornpipes.
Z:Village Music Project, Simon Wilson 2016
O:England.
K:Bb
|:BdBd DEFDE2C2|BdBd FBAcB2B,2|BdBd DEFDE2gf|edcB FBAcB2B,2:|
|:Bdfd BdcBA2F2|DFBF GFGED2B,2|Bdfd BdcBA2F2|DFBD CBAcB4:|

